X:203
T:Cogs
C:Colin Hume, 1980
L:1/8
M:2/2
R:Reel
S:Colin Hume's website,  colinhume.com  - chords can also be printed below the stave.
Q:1/2=110
%%MIDI chordname dim 0 3 6 9
K:G
P:A
"G"GDBD "/"GDBD | "Am".A2 .A2 "/"A3G | "D7"FDAD "/"FDAD | "G"GABc "G7"d4 |
"C"eGcG "/"eGcG | "G"dGBG "Ddim"d^GBG | "A7"A^GAB "/"^cABc | "D7"d^c"_break"de d=cBA |
P:B
"G"GDBD "/"GDBD | "Am".A2 .A2 "/"A3G | "D7"FDAD "/"FDAD | "G"GABc "G7"d4 |
"C"eGcG "/"eGcG | "G"dGBG "Ddim"d^GBG | "Am"ABcA "D7"FDEF | "G".G2.B2 G4 |
P:C
K:F
"Eb"G_EB,E "/"GFGA | "Bb"BFdF "/"B4 | "Gm"BGDG "/"BABc | "Dm"dAfA "/"d4 |
"Eb"g_eBg "Bb"fdBf | "F7"_ecAe "Gm"d2 (3GAB | "Ab"c_A_Ec "Eb"BGEB | "Bb7"_AFDA "C7"G2 (3CDE |
P:D
"F"FCAC "/"FCAC | "Gm".G2 .G2 "/"G3F | "C7"ECGC "/"ECGC | "F"FGAB "F7"c4 |
"Bb"Bcde "Fdim"f2ed | "F".c2f2 "G7"F3G | "F"A2A2 "C7"GFGA | "F"F4 "D7"^F4 |]

